Yaru++/apps/scalable/meld.svg

<svg height="256" width="256" xmlns="http://www.w3.org/2000/svg" xmlns:xlink="http://www.w3.org/1999/xlink">
  <linearGradient id="linearGradient4358" gradientUnits="userSpaceOnUse" x1="88" x2="488" y1="88" y2="488">
    <stop offset="0" stop-opacity=".588235"/>
    <stop offset="1" stop-opacity=".205556"/>
  </linearGradient>
  <filter id="filter4380" color-interpolation-filters="sRGB" height="1.088" width="1.106" x="-.05" y="-.04">
    <feGaussianBlur stdDeviation="8.48"/>
  </filter>
  <filter id="filter4346" color-interpolation-filters="sRGB" height="1.022" width="1.026" x="-.01" y="-.01">
    <feGaussianBlur stdDeviation="2.12"/>
  </filter>
  <path d="m141.84323 74c-70.59344 0-78.18921 7.250835-77.84323 77.98706v146.01294 146.01294c-.34598 70.73623 7.24979 77.98706 77.84323 77.98706h292.31354c70.59344 0 79.78033-7.27652 77.84323-77.98706v-146.01294-146.01294c0-70.737067-7.24979-77.98706-77.84323-77.98706z" filter="url(#filter4346)" opacity=".1" transform="matrix(.5 0 0 .5 -16.116488 -20.825537)"/>
  <path d="m141.84323 74c-70.59344 0-78.18921 7.250835-77.84323 77.98706v146.01294 146.01294c-.34598 70.73623 7.24979 77.98706 77.84323 77.98706h292.31354c70.59344 0 79.78033-7.27652 77.84323-77.98706v-146.01294-146.01294c0-70.737067-7.24979-77.98706-77.84323-77.98706z" fill="url(#linearGradient4358)" filter="url(#filter4380)" opacity=".3" transform="matrix(.5 0 0 .5 -16.116488 -20.825235)"/>
  <path d="m53.695112 13.174464c-36.098811 0-39.983002 3.690159-39.80608 39.689839v74.310167 74.31016c-.176922 35.99969 3.707269 39.68984 39.80608 39.68984h148.387318c36.09881 0 40.77464-3.70276 39.80608-39.68984v-74.31016-74.310167c0-36.00011-3.70727-39.689839-39.80608-39.689839z" opacity=".2"/>
  <g fill-rule="evenodd">
    <path d="m54.798828 15.173828c-4.412089 0-8.327563.056409-11.804687.22461-3.477125.1682-6.514298.448292-9.166016.894531-2.651718.446238-4.9196 1.060416-6.855469 1.894531-.967934.417057-1.852595.889207-2.662109 1.423828-.809515.534621-1.542242 1.130961-2.207031 1.796875-.66479.665915-1.261163 1.4-1.794922 2.210938-.533759.810937-1.005452 1.698278-1.421875 2.667968-.832847 1.939382-1.444952 4.210416-1.890625 6.867188-.445673 2.656771-.724521 5.699594-.892578 9.183594-.168058 3.484-.22461 7.409011-.22461 11.830078v73.005861 73.00781c0 4.42107.056552 8.34608.22461 11.83008.168057 3.484.446905 6.52682.892578 9.18359s1.057778 4.92781 1.890625 6.86719c.416423.96969.888116 1.85508 1.421875 2.66602.533759.81093 1.130132 1.54697 1.794922 2.21289.664789.66591 1.397516 1.26225 2.207031 1.79687.809514.53462 1.694175 1.00677 2.662109 1.42383 1.935869.83411 4.203751 1.44634 6.855469 1.89258s5.688891.72633 9.166016.89453c3.477124.1682 7.392598.22461 11.804687.22461h146.158202c4.41209 0 8.33098-.0564 11.8125-.22461s6.52512-.44828 9.18359-.89453c2.65848-.44626 4.93204-1.05845 6.875-1.89258.97149-.41707 1.86107-.8892 2.67383-1.42383.81277-.53463 1.54931-1.13095 2.2168-1.79687s1.26512-1.40195 1.80078-2.21289c.53566-.81095 1.00851-1.69828 1.42578-2.66797.83454-1.93939 1.44706-4.20848 1.88867-6.86524.44162-2.65676.71291-5.69962.86914-9.18359.15624-3.48397.19741-7.40906.17579-11.83008v-73.00781-73.005861c.02162-4.421014-.01955-8.346107-.17579-11.830078-.15623-3.483972-.42752-6.526832-.86914-9.183594-.44161-2.656762-1.05413-4.927802-1.88867-6.867188-.41727-.969692-.89012-1.857026-1.42578-2.667968-.53566-.810943-1.13329-1.545017-1.80078-2.210938s-1.40403-1.262246-2.2168-1.796875c-.81276-.534629-1.70234-1.006762-2.67383-1.423828-1.94296-.834132-4.21652-1.448276-6.875-1.894531-2.65847-.446255-5.70207-.726321-9.18359-.894531-3.48152-.168211-7.40041-.22461-11.8125-.22461z" fill="#234db8"/>
    <path d="m150.49023 239.17383h50.4668c4.41209 0 8.33098-.0564 11.8125-.22461s6.52512-.44828 9.18359-.89453c2.65848-.44626 4.93204-1.05845 6.875-1.89258.97149-.41707 1.86107-.8892 2.67383-1.42383.81277-.53463 1.54931-1.13095 2.2168-1.79687s1.26512-1.40195 1.80078-2.21289c.53566-.81095 1.00851-1.69828 1.42578-2.66797.83454-1.93939 1.44706-4.20848 1.88867-6.86524.44162-2.65676.71291-5.69962.86914-9.18359.15624-3.48397.19741-7.40906.17579-11.83008v-73.00781-51.347658c-5.15875-4.83758-10.70963-9.383703-16.8125-13.445313-18.92676-12.596213-41.42443-21.093958-63.80469-21.304687-.72193-.0068-1.43465.005065-2.15625.015625-23.09094.339212-46.04393 9.754573-64.478517 32.779297-18.858718 23.554478-5.426173 56.652656 11.085937 66.136716 13.35142 6.18586 25.0589-4.06056 26.79297-10.61914-4.78823 2.19719-20.22215 2.37616-23.04297-6.98437-2.9614-21.749 11.38076-37.242386 31.66797-39.457034 34.26116-3.740095 61.00058 30.220354 63.74023 62.242184 3.21126 37.53412-20.51001 74.96962-52.38086 93.98438z" fill="#fb7c38"/>
    <path d="m104.71484 15.173828h-49.916012c-4.412089 0-8.327563.056409-11.804687.22461-3.477125.1682-6.514298.448292-9.166016.894531-2.651718.446238-4.9196 1.060416-6.855469 1.894531-.967934.417057-1.852595.889207-2.662109 1.423828-.809515.534621-1.542242 1.130961-2.207031 1.796875-.66479.665915-1.261163 1.4-1.794922 2.210938-.533759.810937-1.005452 1.698278-1.421875 2.667968-.832847 1.939382-1.444952 4.210416-1.890625 6.867188-.445673 2.656771-.724521 5.699594-.892578 9.183594-.168058 3.484-.22461 7.409011-.22461 11.830078v73.005861 51.04883c5.152658 4.82973 10.694883 9.36996 16.789063 13.42578 19.537283 13.00255 42.870033 21.64391 65.960937 21.30468 23.090944-.33921 46.045884-9.77019 64.480474-32.79492 18.85872-23.55448 5.42417-56.63703-11.0879-66.12109-13.35142-6.18587-25.05889 4.04493-26.79296 10.60351 4.78824-2.19719 20.2866-3.24527 23.10742 6.11524 2.96139 21.74901-11.44521 38.11151-31.73242 40.32617-34.261151 3.74011-61.000586-30.22231-63.740239-62.24414-3.193608-37.327662 20.246031-74.556019 51.851559-93.664062z" fill="#fb7c38"/>
  </g>
  <path d="m54.798828 15.173828c-35.296727 0-39.094869 3.626029-38.921879 38.994139v2c-.17299-35.36811 3.625152-38.99414 38.921879-38.99414h146.156232c35.29673 0 38.92188 3.62561 38.92188 38.99414v-2c0-35.36853-3.62515-38.994139-38.92188-38.994139z" fill="#fff" opacity=".3"/>
  <path d="m54.810792 239.17447c-35.296731 0-39.094875-3.62603-38.921885-38.99414v-2c-.17299 35.36811 3.625154 38.99414 38.921885 38.99414h146.156238c35.29673 0 38.92188-3.62561 38.92188-38.99414v2c0 35.36853-3.62515 38.99414-38.92188 38.99414z" opacity=".2"/>
</svg>

<svg xmlns="http://www.w3.org/2000/svg" xmlns:xlink="http://www.w3.org/1999/xlink" width="256" height="256" version="1.0">
 <defs>
  <linearGradient id="a">
   <stop id="stop2" offset="0" stop-color="#68676b"/>
   <stop id="stop4" offset=".8" stop-color="#424048"/>
   <stop id="stop6" offset="1" stop-color="#241f31"/>
  </linearGradient>
  <radialGradient id="d" cx="279.422" cy="446.483" r="224" fx="279.422" fy="446.483" gradientTransform="matrix(1.34416,6e-4,-6.2e-4,1.38763,-121.22,-718.103)" gradientUnits="userSpaceOnUse" xlink:href="#a"/>
  <linearGradient id="e" x1="43.844" x2="-60" y1="234" y2="234" gradientTransform="matrix(1.0015,0,0,0.99993,72.09,56.015)" gradientUnits="userSpaceOnUse" xlink:href="#b"/>
  <linearGradient id="b">
   <stop id="stop11" offset="0" stop-color="#d5d3cf"/>
   <stop id="stop13" offset=".038" stop-color="#e3e2df"/>
   <stop id="stop15" offset=".077" stop-color="#c0bfbc"/>
   <stop id="stop17" offset=".923" stop-color="#c0bfbc"/>
   <stop id="stop19" offset=".962" stop-color="#e3e2df"/>
   <stop id="stop21" offset="1" stop-color="#d5d3cf"/>
  </linearGradient>
  <linearGradient id="linearGradient1007" x1="160.305" x2="161.33" y1="240.139" y2="135.579" gradientTransform="matrix(0.54625232,0,0,0.54625232,-6.0941965,-68.413544)" gradientUnits="userSpaceOnUse" xlink:href="#linearGradient1018"/>
  <linearGradient id="linearGradient1018">
   <stop id="stop2-3" offset="0" style="stop-color:#37a6e6"/>
   <stop id="stop4-6" offset="1" style="stop-color:#1a7fd4"/>
  </linearGradient>
  <clipPath id="clipPath1082-3" clipPathUnits="userSpaceOnUse">
   <path d="M 361.9375,-212 C 507.2348,-212 528,-191.28677 528,-46.125 V 70.125 C 528,215.28618 507.2348,236 361.9375,236 H 214.0625 C 68.7652,236 48,215.28618 48,70.125 V -46.125 C 48,-191.28677 68.7652,-212 214.0625,-212 Z" style="fill:#8c59d9"/>
  </clipPath>
  <linearGradient id="linearGradient4358" x1="88" x2="488" y1="88" y2="488" gradientUnits="userSpaceOnUse" xlink:href="#linearGradient4360"/>
  <linearGradient id="linearGradient4360">
   <stop id="stop4362" offset="0" style="stop-color:#000000;stop-opacity:0.58823532"/>
   <stop id="stop4366" offset="1" style="stop-color:#000000;stop-opacity:0.20555556"/>
  </linearGradient>
  <filter style="color-interpolation-filters:sRGB" id="filter4380" width="1.106" height="1.088" x="-.05" y="-.04">
   <feGaussianBlur id="feGaussianBlur4382" stdDeviation="8.48"/>
  </filter>
  <filter style="color-interpolation-filters:sRGB" id="filter4346" width="1.026" height="1.022" x="-.01" y="-.01">
   <feGaussianBlur id="feGaussianBlur4348" stdDeviation="2.12"/>
  </filter>
  <radialGradient id="radialGradient1030" cx="64" cy="194.19" r="44" gradientTransform="matrix(-4.7273,7.9359e-7,-3.0301e-7,-1.6364,406.68559,219.93549)" gradientUnits="userSpaceOnUse">
   <stop id="stop1016" offset="0" style="stop-color:#fff"/>
   <stop id="stop1018" offset="1" style="stop-color:#fff;stop-opacity:.094118"/>
  </radialGradient>
  <linearGradient id="linearGradient2151" x1="22.49" x2="35.719" y1="265.25" y2="257.313" gradientTransform="matrix(2.8030833,0,0,2.8030833,-47.025186,-468.27486)" gradientUnits="userSpaceOnUse">
   <stop style="stop-color:#6bcfff" id="stop20" offset="0"/>
   <stop style="stop-color:#4aa5d2" id="stop22" offset="1"/>
  </linearGradient>
  <linearGradient id="linearGradient6455">
   <stop id="stop6457" offset="0" style="stop-color:#fdb245"/>
   <stop id="stop6459" offset="1" style="stop-color:#f57900"/>
  </linearGradient>
  <linearGradient id="linearGradient6501-7" x1="314.031" x2="311.126" y1="192.257" y2="669.858" gradientTransform="matrix(0.45082366,0,0,0.45083756,-2.4405351,-3.7252838)" gradientUnits="userSpaceOnUse" xlink:href="#linearGradient8955-2"/>
  <linearGradient id="linearGradient8955-2">
   <stop id="stop8957-9" offset="0" style="stop-color:#729fcf"/>
   <stop id="stop8959-9" offset="1" style="stop-color:#3465a4"/>
  </linearGradient>
 </defs>
 <path style="opacity:0.1;filter:url(#filter4346)" d="M 141.84323,74 C 71.24979,74 63.65402,81.250835 64,151.98706 V 298 444.01294 C 63.65402,514.74917 71.24979,522 141.84323,522 H 434.15677 C 504.75021,522 513.9371,514.72348 512,444.01294 V 298 151.98706 C 512,81.249993 504.75021,74 434.15677,74 Z" transform="matrix(0.5,0,0,0.5,-16.116488,-20.825537)"/>
 <path d="M 141.84323,74 C 71.24979,74 63.65402,81.250835 64,151.98706 V 298 444.01294 C 63.65402,514.74917 71.24979,522 141.84323,522 H 434.15677 C 504.75021,522 513.9371,514.72348 512,444.01294 V 298 151.98706 C 512,81.249993 504.75021,74 434.15677,74 Z" transform="matrix(0.5,0,0,0.5,-16.116488,-20.825235)" style="opacity:0.3;fill:url(#linearGradient4358);filter:url(#filter4380)"/>
 <path style="opacity:0.2" d="m 53.695112,13.174464 c -36.098811,0 -39.983002,3.690159 -39.80608,39.689839 v 74.310167 74.31016 c -0.176922,35.99969 3.707269,39.68984 39.80608,39.68984 H 202.08243 c 36.09881,0 40.77464,-3.70276 39.80608,-39.68984 V 127.17447 52.864303 c 0,-36.00011 -3.70727,-39.689839 -39.80608,-39.689839 z"/>
 <path style="fill:#234db8;fill-rule:evenodd" d="M 54.798828 15.173828 C 50.386739 15.173828 46.471265 15.230237 42.994141 15.398438 C 39.517016 15.566638 36.479843 15.84673 33.828125 16.292969 C 31.176407 16.739207 28.908525 17.353385 26.972656 18.1875 C 26.004722 18.604557 25.120061 19.076707 24.310547 19.611328 C 23.501032 20.145949 22.768305 20.742289 22.103516 21.408203 C 21.438726 22.074118 20.842353 22.808203 20.308594 23.619141 C 19.774835 24.430078 19.303142 25.317419 18.886719 26.287109 C 18.053872 28.226491 17.441767 30.497525 16.996094 33.154297 C 16.550421 35.811068 16.271573 38.853891 16.103516 42.337891 C 15.935458 45.821891 15.878906 49.746902 15.878906 54.167969 L 15.878906 127.17383 L 15.878906 200.18164 C 15.878906 204.60271 15.935458 208.52772 16.103516 212.01172 C 16.271573 215.49572 16.550421 218.53854 16.996094 221.19531 C 17.441767 223.85208 18.053872 226.12312 18.886719 228.0625 C 19.303142 229.03219 19.774835 229.91758 20.308594 230.72852 C 20.842353 231.53945 21.438726 232.27549 22.103516 232.94141 C 22.768305 233.60732 23.501032 234.20366 24.310547 234.73828 C 25.120061 235.2729 26.004722 235.74505 26.972656 236.16211 C 28.908525 236.99622 31.176407 237.60845 33.828125 238.05469 C 36.479843 238.50093 39.517016 238.78102 42.994141 238.94922 C 46.471265 239.11742 50.386739 239.17383 54.798828 239.17383 L 200.95703 239.17383 C 205.36912 239.17383 209.28801 239.11743 212.76953 238.94922 C 216.25105 238.78101 219.29465 238.50094 221.95312 238.05469 C 224.6116 237.60843 226.88516 236.99624 228.82812 236.16211 C 229.79961 235.74504 230.68919 235.27291 231.50195 234.73828 C 232.31472 234.20365 233.05126 233.60733 233.71875 232.94141 C 234.38624 232.27549 234.98387 231.53946 235.51953 230.72852 C 236.05519 229.91757 236.52804 229.03024 236.94531 228.06055 C 237.77985 226.12116 238.39237 223.85207 238.83398 221.19531 C 239.2756 218.53855 239.54689 215.49569 239.70312 212.01172 C 239.85936 208.52775 239.90053 204.60266 239.87891 200.18164 L 239.87891 127.17383 L 239.87891 54.167969 C 239.90053 49.746955 239.85936 45.821862 239.70312 42.337891 C 239.54689 38.853919 239.2756 35.811059 238.83398 33.154297 C 238.39237 30.497535 237.77985 28.226495 236.94531 26.287109 C 236.52804 25.317417 236.05519 24.430083 235.51953 23.619141 C 234.98387 22.808198 234.38624 22.074124 233.71875 21.408203 C 233.05126 20.742282 232.31472 20.145957 231.50195 19.611328 C 230.68919 19.076699 229.79961 18.604566 228.82812 18.1875 C 226.88516 17.353368 224.6116 16.739224 221.95312 16.292969 C 219.29465 15.846714 216.25105 15.566648 212.76953 15.398438 C 209.28801 15.230227 205.36912 15.173828 200.95703 15.173828 L 54.798828 15.173828 z"/>
 <path style="fill:#fb7c38;fill-rule:evenodd" d="M 150.49023 239.17383 L 200.95703 239.17383 C 205.36912 239.17383 209.28801 239.11743 212.76953 238.94922 C 216.25105 238.78101 219.29465 238.50094 221.95312 238.05469 C 224.6116 237.60843 226.88516 236.99624 228.82812 236.16211 C 229.79961 235.74504 230.68919 235.27291 231.50195 234.73828 C 232.31472 234.20365 233.05126 233.60733 233.71875 232.94141 C 234.38624 232.27549 234.98387 231.53946 235.51953 230.72852 C 236.05519 229.91757 236.52804 229.03024 236.94531 228.06055 C 237.77985 226.12116 238.39237 223.85207 238.83398 221.19531 C 239.2756 218.53855 239.54689 215.49569 239.70312 212.01172 C 239.85936 208.52775 239.90053 204.60266 239.87891 200.18164 L 239.87891 127.17383 L 239.87891 75.826172 C 234.72016 70.988592 229.16928 66.442469 223.06641 62.380859 C 204.13965 49.784646 181.64198 41.286901 159.26172 41.076172 C 158.53979 41.069372 157.82707 41.081237 157.10547 41.091797 C 134.01453 41.431009 111.06154 50.84637 92.626953 73.871094 C 73.768235 97.425572 87.20078 130.52375 103.71289 140.00781 C 117.06431 146.19367 128.77179 135.94725 130.50586 129.38867 C 125.71763 131.58586 110.28371 131.76483 107.46289 122.4043 C 104.50149 100.6553 118.84365 85.161914 139.13086 82.947266 C 173.39202 79.207171 200.13144 113.16762 202.87109 145.18945 C 206.08235 182.72357 182.36108 220.15907 150.49023 239.17383 z"/>
 <path style="fill:#fb7c38;fill-rule:evenodd" d="M 104.71484 15.173828 L 54.798828 15.173828 C 50.386739 15.173828 46.471265 15.230237 42.994141 15.398438 C 39.517016 15.566638 36.479843 15.84673 33.828125 16.292969 C 31.176407 16.739207 28.908525 17.353385 26.972656 18.1875 C 26.004722 18.604557 25.120061 19.076707 24.310547 19.611328 C 23.501032 20.145949 22.768305 20.742289 22.103516 21.408203 C 21.438726 22.074118 20.842353 22.808203 20.308594 23.619141 C 19.774835 24.430078 19.303142 25.317419 18.886719 26.287109 C 18.053872 28.226491 17.441767 30.497525 16.996094 33.154297 C 16.550421 35.811068 16.271573 38.853891 16.103516 42.337891 C 15.935458 45.821891 15.878906 49.746902 15.878906 54.167969 L 15.878906 127.17383 L 15.878906 178.22266 C 21.031564 183.05239 26.573789 187.59262 32.667969 191.64844 C 52.205252 204.65099 75.538002 213.29235 98.628906 212.95312 C 121.71985 212.61391 144.67479 203.18293 163.10938 180.1582 C 181.9681 156.60372 168.53355 123.52117 152.02148 114.03711 C 138.67006 107.85124 126.96259 118.08204 125.22852 124.64062 C 130.01676 122.44343 145.51512 121.39535 148.33594 130.75586 C 151.29733 152.50487 136.89073 168.86737 116.60352 171.08203 C 82.342369 174.82214 55.602934 140.85972 52.863281 108.83789 C 49.669673 71.510228 73.109312 34.281871 104.71484 15.173828 z"/>
 <path style="opacity:0.3;fill:#ffffff" d="m 54.798828,15.173828 c -35.296727,0 -39.094869,3.626029 -38.921879,38.994139 v 2 c -0.17299,-35.36811 3.625152,-38.99414 38.921879,-38.99414 H 200.95506 c 35.29673,0 38.92188,3.62561 38.92188,38.99414 v -2 c 0,-35.36853 -3.62515,-38.994139 -38.92188,-38.994139 z"/>
 <path style="opacity:0.2" d="m 54.810792,239.17447 c -35.296731,0 -39.094875,-3.62603 -38.921885,-38.99414 v -2 c -0.17299,35.36811 3.625154,38.99414 38.921885,38.99414 H 200.96703 c 35.29673,0 38.92188,-3.62561 38.92188,-38.99414 v 2 c 0,35.36853 -3.62515,38.99414 -38.92188,38.99414 z"/>
</svg>
